svg/OSM-icons/barrier #666666 °ffffff !label=enbarriers,deAbsperrungen/13038;barrier=turnstile;!#turnstile..full_height=yes;!label=enturnstile full height,deDrehkreuz hoch.svg

<svg xmlns="http://www.w3.org/2000/svg" viewBox="0 0 580 580" enable-background="new 0 0 580 580"><path fill="#111" stroke="#eee" stroke-width="3.408" d="m66.28 1.768c-41.34 0-64.57 21.371-64.57 65.04v450.12c0 40.844 20.894 62.23 62.19 62.23h452.02c41.31 0 62.23-20.316 62.23-62.23v-450.12c0-42.601-20.923-65.04-63.52-65.04-.003 0-448.49-.143-448.35 0z"/><path fill="#fff" d="m467.06 52.958h-147.84-24.669-34.561v72.29l-141.45-70.73-13.245 26.489 151.2 75.6-100.16 50.08-37.8-18.901-13.245 26.489 17.934 8.967-17.934 8.968 13.245 26.489 37.8-18.9 100.16 50.08-100.16 50.08-37.801-18.9-13.245 26.489 17.935 8.967-17.935 8.968 13.245 26.489 37.801-18.901 100.16 50.08-151.2 75.6 13.245 26.489 141.45-70.73v72.29h59.23v-72.29l118.27 59.14v13.393h25v-.387l4.204-.093.361-473.61m-207.07 338.83l-70.54-35.27 70.54-35.27v70.54m0-133.27l-70.54-35.27 70.54-35.27v70.54m177.5-59.14l-14.62 7.311-100.16-50.08 114.78-57.39v100.16m0 47.732v85.54l-14.621 7.311-100.16-50.08 100.16-50.08 14.62 7.31m-118.27-164.54h85.35l-85.35 42.675v-42.675m0 105.4l70.54 35.27-70.54 35.27v-70.54m0 133.27l70.54 35.27-70.54 35.27v-70.54m3.496 101.91l100.16-50.08 14.621 7.311v100.16l-114.78-57.39"/></svg>

<?xml version="1.0" encoding="utf-8"?>
<!-- Generator: Adobe Illustrator 15.0.0, SVG Export Plug-In . SVG Version: 6.00 Build 0)  -->
<!DOCTYPE svg PUBLIC "-//W3C//DTD SVG 1.1//EN" "http://www.w3.org/Graphics/SVG/1.1/DTD/svg11.dtd">
<svg version="1.1" xmlns="http://www.w3.org/2000/svg" xmlns:xlink="http://www.w3.org/1999/xlink" x="0px" y="0px" width="580px"
	 height="580px" viewBox="0 0 580 580" enable-background="new 0 0 580 580" xml:space="preserve">
<g id="Layer_2">
	<g id="g1327">
		<path id="path1329" fill="#111111" stroke="#EEEEEE" stroke-width="3.408" d="M66.275,1.768
			c-41.335,0-64.571,21.371-64.571,65.036v450.123c0,40.844,20.894,62.229,62.192,62.229H515.92
			c41.307,0,62.229-20.316,62.229-62.229V66.804c0-42.601-20.923-65.036-63.522-65.036C514.624,1.768,66.133,1.625,66.275,1.768z"/>
	</g>
</g>
<g id="svg2" inkscape:output_extension="org.inkscape.output.svg.inkscape" inkscape:version="0.46" sodipodi:docname="waste_bin.svg" sodipodi:version="0.32" xmlns:inkscape="http://www.inkscape.org/namespaces/inkscape" xmlns:rdf="http://www.w3.org/1999/02/22-rdf-syntax-ns#" xmlns:svg="http://www.w3.org/2000/svg" xmlns:sodipodi="http://sodipodi.sourceforge.net/DTD/sodipodi-0.dtd" xmlns:cc="http://creativecommons.org/ns#" xmlns:dc="http://purl.org/dc/elements/1.1/">
	<path fill="#FFFFFF" d="M467.065,52.958H319.225h-24.669h-34.561v72.29L118.541,54.521L105.296,81.01l151.203,75.602
		L156.341,206.69l-37.8-18.901l-13.245,26.489l17.934,8.967l-17.934,8.968l13.245,26.489l37.8-18.9L256.5,289.88l-100.158,50.079
		l-37.801-18.9l-13.245,26.489l17.935,8.967l-17.935,8.968l13.245,26.489l37.801-18.901L256.5,423.149l-151.204,75.602
		l13.245,26.489l141.454-70.728v72.29h59.23v-72.291L437.5,513.65v13.393h25v-0.387l4.204-0.093L467.065,52.958z M259.995,391.785
		l-70.542-35.271l70.542-35.271V391.785z M259.995,258.517l-70.542-35.271l70.542-35.271V258.517z M437.5,199.379l-14.62,7.311
		l-100.159-50.079L437.5,99.222V199.379z M437.5,247.111v85.537l-14.621,7.311L322.721,289.88l100.159-50.079L437.5,247.111z
		 M319.225,82.573h85.352l-85.352,42.675V82.573z M319.225,187.974l70.543,35.272l-70.543,35.271V187.974z M319.225,321.243
		l70.543,35.271l-70.543,35.272V321.243z M322.721,423.149l100.158-50.079l14.621,7.311v100.158L322.721,423.149z"/>
</g>
</svg>
